flaticon/stationery/writing-tool-1.svg

<svg xmlns="http://www.w3.org/2000/svg" width="32" height="32" viewBox="0 0 24 24">
    <path d="M 18.734375 2.558594 L 18.355469 2.457031 L 18.574219 1.632812 C 18.792969 0.839844 18.265625 0.203125 17.660156 0.0429688 C 16.988281 -0.140625 16.261719 0.285156 16.082031 0.960938 L 15.863281 1.785156 L 15.484375 1.683594 C 14.378906 1.628906 13.332031 2.402344 13.035156 3.519531 L 12.007812 7.375 L 12.988281 7.640625 L 14.015625 3.785156 C 14.167969 3.21875 14.648438 2.828125 15.195312 2.761719 L 13.375 9.597656 L 9.496094 9.597656 L 9.496094 2.816406 C 9.496094 2.535156 9.269531 2.304688 8.988281 2.304688 C 8.710938 2.304688 8.480469 2.535156 8.480469 2.816406 L 8.480469 9.597656 L 5.265625 9.597656 L 7.804688 24 L 16.179688 24 L 18.714844 9.597656 L 16.855469 9.597656 Z M 17.0625 1.222656 C 17.101562 1.082031 17.25 0.988281 17.398438 1.027344 C 17.523438 1.0625 17.632812 1.171875 17.59375 1.367188 L 17.375 2.191406 L 16.84375 2.046875 Z M 16.203125 2.933594 L 17.488281 3.28125 L 15.804688 9.597656 L 14.425781 9.597656 Z M 17.503906 10.617188 L 15.328125 22.980469 L 8.65625 22.980469 L 6.480469 10.617188 Z M 17.503906 10.617188"/>
</svg>

<svg xmlns="http://www.w3.org/2000/svg" width="32" height="32" viewBox="0 0 24 24">
    <path d="M18.734 2.559l-.379-.102.22-.824c.218-.793-.31-1.43-.915-1.59-.672-.184-1.398.242-1.578.918l-.219.824-.379-.101c-1.105-.055-2.152.718-2.449 1.836l-1.027 3.855.98.266 1.028-3.856a1.397 1.397 0 0 1 1.18-1.023l-1.821 6.836H9.496V2.816a.51.51 0 0 0-.508-.511.513.513 0 0 0-.508.511v6.782H5.266L7.805 24h8.375l2.535-14.402h-1.86zm-1.672-1.336a.279.279 0 0 1 .336-.196c.125.036.235.145.196.34l-.219.824-.531-.144zm-.859 1.71l1.285.348-1.683 6.317h-1.38zm1.3 7.684L15.329 22.98H8.656L6.48 10.617zm0 0"/>
</svg>
